packages/core/src/svgs/tokens/mono/PEX.svg

<svg width="24" height="24" viewBox="0 0 24 24" fill="none" xmlns="http://www.w3.org/2000/svg">
<path d="M11.1601 10.1841C11.1057 10.2538 11.0482 10.3278 10.9885 10.4059C10.2355 11.3706 9.11203 12.8118 9.05909 13.6647C8.98262 14.9 10.412 16.1176 12.0002 16.1176C13.5885 16.1176 15.0179 14.9 14.9414 13.6647C14.8884 12.8118 13.765 11.3647 13.012 10.4L12.5768 9.83531C12.4531 9.6647 12.2179 9.64713 12.0002 9.64713C11.812 9.64123 11.5238 9.69997 11.4237 9.83531C11.3511 9.93852 11.2611 10.0542 11.1601 10.1841Z" fill="white"/>
<path fill-rule="evenodd" clip-rule="evenodd" d="M21.2706 12.1822C21.2706 17.3023 17.12 21.4528 12 21.4528C6.88008 21.4528 2.72949 17.3023 2.72949 12.1822C2.72949 7.06219 6.88008 2.91162 12 2.91162C17.12 2.91162 21.2706 7.06219 21.2706 12.1822ZM13.7764 6.11781C13.3646 6.57663 12.5294 7.57075 12.4705 7.88251H12.8823L15.0587 6.11781H13.7764ZM11.9059 7.88251H12.094C12.8242 7.89427 13.5275 8.16057 14.0823 8.63545C14.1774 8.72528 14.2642 8.82373 14.3412 8.92957C14.8693 9.67816 15.3582 10.4536 15.8058 11.2532L15.8328 11.2995C15.9926 11.5752 16.1362 11.8228 16.2588 12.0178C16.5518 12.563 16.7051 13.1724 16.7051 13.7913C16.7051 14.4103 16.5518 15.0196 16.2588 15.5649C15.8158 16.2919 15.1887 16.8891 14.4408 17.2961C13.693 17.703 12.851 17.9053 11.9999 17.8826C11.1489 17.9053 10.3068 17.703 9.55907 17.2961C8.81122 16.8891 8.18411 16.2919 7.74112 15.5649C7.44816 15.0196 7.29483 14.4103 7.29483 13.7913C7.29483 13.1724 7.44816 12.563 7.74112 12.0178C7.87053 11.8119 8.02348 11.5472 8.18818 11.2532C8.21273 11.2114 8.23764 11.1692 8.2629 11.1263C8.65544 10.46 9.13373 9.64796 9.65872 8.92957C10.2588 8.10604 11.347 7.89427 11.9059 7.88251Z" fill="white"/>
<path fill-rule="evenodd" clip-rule="evenodd" d="M11.9996 21.2705C14.4583 21.2705 16.8163 20.2936 18.5549 18.5552C20.2934 16.8166 21.2702 14.4585 21.2702 11.9999C21.2702 9.54109 20.2934 7.18311 18.5549 5.44455C16.8163 3.70597 14.4583 2.72925 11.9996 2.72925C9.54085 2.72925 7.18287 3.70597 5.4443 5.44455C3.70572 7.18311 2.729 9.54109 2.729 11.9999C2.729 14.4585 3.70572 16.8166 5.4443 18.5552C7.18287 20.2936 9.54085 21.2705 11.9996 21.2705ZM11.9996 20.4881C14.2507 20.4881 16.4098 19.5938 18.0016 18.0019C19.5935 16.41 20.4879 14.251 20.4879 11.9999C20.4879 9.74862 19.5935 7.58961 18.0016 5.99775C16.4098 4.4059 14.2507 3.5116 11.9996 3.5116C9.74838 3.5116 7.58936 4.4059 5.99751 5.99775C4.40565 7.58961 3.51136 9.74862 3.51136 11.9999C3.51136 14.251 4.40565 16.41 5.99751 18.0019C7.58936 19.5938 9.74838 20.4881 11.9996 20.4881Z" fill="white"/>
<path fill-rule="evenodd" clip-rule="evenodd" d="M12 22C14.6522 22 17.1957 20.9464 19.071 19.071C20.9464 17.1957 22 14.6522 22 12C22 9.34785 20.9464 6.80429 19.071 4.92892C17.1957 3.05357 14.6522 2 12 2C9.34785 2 6.80429 3.05357 4.92892 4.92892C3.05357 6.80429 2 9.34785 2 12C2 14.6522 3.05357 17.1957 4.92892 19.071C6.80429 20.9464 9.34785 22 12 22ZM12 21.1176C13.1973 21.1176 14.3829 20.8818 15.4892 20.4236C16.5953 19.9653 17.6004 19.2937 18.4472 18.4472C19.2937 17.6004 19.9653 16.5953 20.4236 15.4892C20.8818 14.3829 21.1176 13.1973 21.1176 12C21.1176 10.8026 20.8818 9.61701 20.4236 8.51082C19.9653 7.40461 19.2937 6.3995 18.4472 5.55284C17.6004 4.70618 16.5953 4.03458 15.4892 3.57638C14.3829 3.11819 13.1973 2.88234 12 2.88234C9.58187 2.88234 7.26273 3.84295 5.55284 5.55284C3.84295 7.26273 2.88234 9.58187 2.88234 12C2.88234 14.4182 3.84295 16.7372 5.55284 18.4472C7.26273 20.1571 9.58187 21.1176 12 21.1176Z" fill="white"/>
</svg>

<svg xmlns="http://www.w3.org/2000/svg" width="24" height="24" fill="none" viewBox="0 0 24 24">
    <path fill="#fff" d="m11.16 10.184-.171.222c-.754.965-1.877 2.406-1.93 3.259-.076 1.235 1.353 2.453 2.941 2.453s3.018-1.218 2.941-2.453c-.053-.853-1.176-2.3-1.929-3.265l-.435-.565c-.124-.17-.36-.188-.577-.188-.188-.006-.476.053-.576.188q-.111.155-.264.35"/>
    <path fill="#fff" fill-rule="evenodd" d="M21.27 12.182a9.27 9.27 0 1 1-18.54 0 9.27 9.27 0 0 1 18.54 0m-7.494-6.064c-.411.459-1.247 1.453-1.306 1.765h.412l2.177-1.765zm-1.87 1.765h.188c.73.011 1.434.278 1.988.752q.143.136.26.295a26 26 0 0 1 1.464 2.323l.027.046c.16.276.303.524.426.719a3.75 3.75 0 0 1 0 3.547 4.84 4.84 0 0 1-4.26 2.318 4.84 4.84 0 0 1-4.258-2.318 3.75 3.75 0 0 1 0-3.547c.13-.206.282-.47.447-.765l.075-.127c.392-.666.87-1.478 1.396-2.196.6-.824 1.688-1.036 2.247-1.047" clip-rule="evenodd"/>
    <path fill="#fff" fill-rule="evenodd" d="M12 21.27a9.271 9.271 0 1 0-.001-18.542 9.271 9.271 0 0 0 0 18.542m0-.782a8.488 8.488 0 1 0 0-16.976 8.488 8.488 0 0 0 0 16.976" clip-rule="evenodd"/>
    <path fill="#fff" fill-rule="evenodd" d="M12 22a10 10 0 1 0 0-20 10 10 0 0 0 0 20m0-.882A9.118 9.118 0 1 0 12 2.88a9.118 9.118 0 0 0 0 18.237" clip-rule="evenodd"/>
</svg>
